X:0
K:Dm
M:4/4
L:1/8
T:Dublin Gypsy
T:Copyright 2010, Stephan R.A. Deibel
T:-
"Dm"vAdef2a3|"A"uaad e-e4|"Dm"Ade(v!1!f2u!1!a3)|"Csup9"d'd'^c' =c'-=c'4|"C7"abc'2c'4|"Gm"c'ba (u!2!b!2!g)-g3|"Dm"Adef2a3|"A"aa^c"Dm"ud-d3|
